X:1
T: 72nd's Farewell to Aberdeen
C:
R:Reel
I:speed 232
Q:232
K:A
M:4/4
L:1/8
|:A2|E2A2 A2Bc|dc BA c4|d2F2 F2GA|BcBA G2E2|
E2A2 A2Bc|dcBA c4|d2F2 GA BG|A4 A2cd|
e2E2 E2=G2|F2D2 E4|E2A2 AG AB|c2B2 B2cd|
e2E2 E2=G2|F2D2 E4|E2A2 cB AG|A4A2:|

